frontend/svgs/biz054.svg

<?xml version="1.0" encoding="UTF-8"?> <svg width="100px" height="100px" viewBox="0 0 100 100" version="1.1" xmlns="http://www.w3.org/2000/svg" xmlns:xlink="http://www.w3.org/1999/xlink"> <g id="54.-Team-2" stroke="none" stroke-width="1" fill="none" fill-rule="evenodd" stroke-linecap="round" stroke-linejoin="round"> <path d="M12.6352584,71.348932 C12.2993445,71.558718 11.6665298,72.8754793 11.9528214,74.0307902 C12.3785913,75.7489568 13.8930439,76.4195358 13.8930439,76.4195358 C13.8930439,76.4195358 16.2623234,79.5922968 16.2623234,81.4374318 C16.2623234,83.2825668 16.2623234,83.9994087 15.6273927,85.5387272 C14.9924621,87.0780457 2.52911299,88.923275 2,97.9980184 L20.1404166,97.9980184 L38.48,98 C37.950887,88.9252566 25.4875379,87.0800273 24.8526073,85.5407088 C24.2176766,84.0013903 24.2176766,83.2845484 24.2176766,81.4394134 C24.2176766,79.5942784 26.5869561,76.4215174 26.5869561,76.4215174 C26.5869561,76.4215174 28.1014087,75.7509384 28.5271786,74.0327718 C28.8134702,72.8774609 28.1806555,71.5606997 27.8447416,71.3509136 C28.7426443,68.5722277 30.5359491,58.9927754 20.3395834,58.6475136 C20.2942592,58.6409862 20.249169,58.6421514 20.2043091,58.6434942 C9.94405088,58.9907938 11.7373557,68.5702461 12.6352584,71.348932 Z" id="Layer-1" stroke="#468CDD" stroke-width="4" fill="#468CDD"></path> <path d="M72.1552584,71.348932 C71.8193445,71.558718 71.1865298,72.8754793 71.4728214,74.0307902 C71.8985913,75.7489568 73.4130439,76.4195358 73.4130439,76.4195358 C73.4130439,76.4195358 75.7823234,79.5922968 75.7823234,81.4374318 C75.7823234,83.2825668 75.7823234,83.9994087 75.1473927,85.5387272 C74.5124621,87.0780457 62.049113,88.923275 61.52,97.9980184 L79.6604166,97.9980184 L98,98 C97.470887,88.9252566 85.0075379,87.0800273 84.3726073,85.5407088 C83.7376766,84.0013903 83.7376766,83.2845484 83.7376766,81.4394134 C83.7376766,79.5942784 86.1069561,76.4215174 86.1069561,76.4215174 C86.1069561,76.4215174 87.6214087,75.7509384 88.0471786,74.0327718 C88.3334702,72.8774609 87.7006555,71.5606997 87.3647416,71.3509136 C88.2626443,68.5722277 90.0559491,58.9927754 79.8595834,58.6475136 C79.8142592,58.6409862 79.769169,58.6421514 79.7243091,58.6434942 C69.4640509,58.9907938 71.2573557,68.5702461 72.1552584,71.348932 Z" id="Layer-2" stroke="#468CDD" stroke-width="4" fill="#468CDD"></path> <path d="M42.3952584,14.708932 C42.0593445,14.918718 41.4265298,16.2354793 41.7128214,17.3907902 C42.1385913,19.1089568 43.6530439,19.7795358 43.6530439,19.7795358 C43.6530439,19.7795358 46.0223234,22.9522968 46.0223234,24.7974318 C46.0223234,26.6425668 46.0223234,27.3594087 45.3873927,28.8987272 C44.7524621,30.4380457 32.289113,32.283275 31.76,41.3580184 L49.9004166,41.3580184 L68.24,41.36 C67.710887,32.2852566 55.2475379,30.4400273 54.6126073,28.9007088 C53.9776766,27.3613903 53.9776766,26.6445484 53.9776766,24.7994134 C53.9776766,22.9542784 56.3469561,19.7815174 56.3469561,19.7815174 C56.3469561,19.7815174 57.8614087,19.1109384 58.2871786,17.3927718 C58.5734702,16.2374609 57.9406555,14.9206997 57.6047416,14.7109136 C58.5026443,11.9322277 60.2959491,2.35277537 50.0995834,2.00751361 C50.0542592,2.00098625 50.009169,2.00215142 49.9643091,2.00349424 C39.7040509,2.35079377 41.4973557,11.9302461 42.3952584,14.708932 Z" id="Layer-3" stroke="#468CDD" stroke-width="4" fill="#468CDD"></path> <path d="M50,64.4 L62.48,72.08" id="Layer-4" stroke="#A4B8CE" stroke-width="4"></path> <polyline id="Layer-5" stroke="#A4B8CE" stroke-width="4" points="50 51.92 50 64.4 37.52 72.08"></polyline> </g> </svg>

<svg width="100" height="100" xmlns="http://www.w3.org/2000/svg"><g fill="none" fill-rule="evenodd" stroke-linecap="round" stroke-linejoin="round" stroke-width="4"><path d="M12.635 71.349c-.336.21-.968 1.526-.682 2.682.426 1.718 1.94 2.389 1.94 2.389s2.37 3.172 2.37 5.017c0 1.846 0 2.562-.636 4.102C14.992 87.078 2.53 88.923 2 97.998h18.14L38.48 98c-.53-9.075-12.992-10.92-13.627-12.46-.635-1.539-.635-2.255-.635-4.1 0-1.846 2.369-5.018 2.369-5.018s1.514-.671 1.94-2.39c.286-1.155-.346-2.471-.682-2.681.898-2.779 2.69-12.358-7.505-12.703a.779.779 0 00-.136-.005c-10.26.348-8.467 9.927-7.569 12.706zM72.155 71.349c-.336.21-.968 1.526-.682 2.682.426 1.718 1.94 2.389 1.94 2.389s2.37 3.172 2.37 5.017c0 1.846 0 2.562-.636 4.102-.635 1.539-13.098 3.384-13.627 12.459h18.14L98 98c-.53-9.075-12.992-10.92-13.627-12.46-.635-1.539-.635-2.255-.635-4.1 0-1.846 2.369-5.018 2.369-5.018s1.514-.671 1.94-2.39c.286-1.155-.346-2.471-.682-2.681.898-2.779 2.69-12.358-7.505-12.703a.779.779 0 00-.136-.005c-10.26.348-8.467 9.927-7.569 12.706zM42.395 14.709c-.336.21-.968 1.526-.682 2.682.426 1.718 1.94 2.389 1.94 2.389s2.37 3.172 2.37 5.017c0 1.846 0 2.562-.636 4.102-.635 1.539-13.098 3.384-13.627 12.459H49.9l18.34.002c-.53-9.075-12.992-10.92-13.627-12.46-.635-1.539-.635-2.255-.635-4.1 0-1.846 2.369-5.018 2.369-5.018s1.514-.671 1.94-2.39c.286-1.155-.346-2.471-.682-2.681.898-2.779 2.69-12.358-7.505-12.703a.779.779 0 00-.136-.005c-10.26.348-8.467 9.927-7.569 12.706z" stroke="#468CDD" fill="#468CDD"/><path d="M50 64.4l12.48 7.68M50 51.92V64.4l-12.48 7.68" stroke="#A4B8CE"/></g></svg>
